X: 724
T: Ey Sabâh-ı Hüsn-ü Ânın...
C: Leylâ Saz
O: Turkey
F: http://compmusic.upf.edu/node/140
N: huzzam--sarki--agiraksak--ey_sabah-i--leyla_saz
N: makam= huzzam
N: form= sarki
N: usul= agiraksak = 9/4
M: 9/4
L: 1/16
K: C _1/4B _3/4e ^3/4f 
Q: 1/4=63
%%MIDI tuningsystem comma53
B2d4B2 c2BA G4 B2^AB c2Bc d2cd e2de f4  | \
w:  ARANAĞME  | 
e2f4g2 f2g2 f2ed a2gf feed e4 defd e4  | 
w:   | 
d2g4fe a2gf _b2ag g2fe a2gf f2ed g2fe d_1/4edc  | 
w:   | 
Bd2c B2c2 d2e2 g2fe d3c dccB B4 ^ABcA B4  | 
w:   | 
B2d4B2 c2BA G4 B2^AB c2Bc d2cd e2de f4  | \
w:  ARANAĞME  | 
e2f4g2 f2g2 f2ed a2gf feed e4 defd e4  | 
w:   | 
d2g4fe a2gf _b2ag g2fe a2gf f2ed g2fe d_1/4edc  | 
w:   | 
Bd2c B2c2 d2e2 g2fe d3c dccB B4 ^ABcA B4  | 
w:   | 
z8 z2f2 e2d2 d2{e}dc B^AB2 c4 d4 c2d2  | \
w:  Ey  *  sa bâh_ *  *  *  *  *  *  ı   | 
e2{f}ed d4 z2B4d2 d2c2 c2d_1/4e dcB^A B4 dcBA  | 
w:  *  *  *  *  *  hüsn_ ü  â *  *  *  *  nın  *  *  *  *  SAZ  | 
B8 z2dc B2c2 d2{f}ed c2d2 edf4ed d4  | \
w:  *  â *  *  fi tâb_ *  *  *  *  *  ı   | 
z2g2 f2e2 d2f2 e2d2 edcB c2de c2d4fe dcBc  | 
w:  en *  *  *  *  *  *  *  *  *  *  *  ve *  ri   *  SAZ  | 
d3e dcd2 z2d2 e2f2 gfed aggf f8 fed2  | 
w:  *  *  *  *  *  Ey  *  za râ *  *  *  *  *  *  *  fet   | 
e2f2 g4 z2gf e2g2 gffe d2{e}c2 d2f4ed d4  | \
w:  *  *  *  ba *  *  ğı nın  *  *  *  *  *  *  şen   | 
d2c2 c2B2 z2B4d2 d2c2 c2d_1/4e dcB^A B2c2 d4  | 
w:  *  *  *  *  bül bü lü  *  *  *  *  nâ  | 
z2f2 e2d2 edcB c2d2 ed{e}c4cB B6fe dcBc  | 
w:  zik  *  *  *  *  *  *  *  *  *  *  *  *  te *  ri   SAZ  | 
d3e dcd2 z2d2 e2f2 gfed aggf f8 fed2  | 
w:  *  *  *  *  *  Ey  *  za râ *  *  *  *  *  *  *  fet   | 
e2f2 g4 z2gf e2g2 gffe d2{e}c2 d2f4ed d4  | \
w:  *  *  *  ba *  *  ğı nın  *  *  *  *  *  *  şen   | 
d2c2 c2B2 z2B4d2 d2c2 c2d_1/4e dcB^A B2c2 d4  | 
w:  *  *  *  *  bül bü lü  *  *  *  *  nâ  | 
z2f2 e2d2 edcB c2d2 ed{e}c4cB B6ag gff^3/4e  | 
w:  zik  *  *  *  *  *  *  *  *  *  *  *  *  te *  ri   SAZ  | 
f3g f^3/4ef2 z2d4e2 f8 f2g2 ^3/4a2b2 c'2b2  | \
w:  *  *  *  *  *  Yok ken_ as la   | 
a2g2 =f2=e2 z2e4f2 e2d4^3/4c2 d2{e}dc B4 ^A2B2  | 
w:  *  *  *  *  gön lü mün  *  *  kalb_  | 
c2{d}cB B4 z2dc B2c2 d2{f}ed c2d2 e2f4ed d4  | \
w:  *  *  *  *  *  i  *  *  la tî *  *  *  *  *  fin  | 
z2g2 f2e2 d2f2 e2d2 edc{d}B c2de c2d4fe dcBc  | 
w:  de  *  *  *  *  *  *  *  *  *  *  *  *  ye *  ri   *  SAZ  | 
d3e dcd2 z2d2 e2f2 gfed aggf f8 fed2  | 
w:  *  *  *  *  *  Ey  *  za râ *  *  *  *  *  *  *  fet   | 
e2f2 g4 z2gf e2g2 gffe d2{e}c2 d2f4ed d4  | \
w:  *  *  *  ba *  *  ğı nın  *  *  *  *  *  *  şen   | 
d2c2 c2B2 z2B4d2 d2c2 c2d_1/4e dcB^A B2c2 d4  | 
w:  *  *  *  *  bül bü lü  *  *  *  *  nâ  | 
z2f2 e2d2 edcB c2d2 ed{e}c4cB B6fe dcBc  | 
w:  zik  *  *  *  *  *  *  *  *  *  *  *  *  te *  ri   SAZ  | 
d3e dcd2 z2d2 e2f2 gfed aggf f8 fed2  | 
w:  *  *  *  *  *  Ey  *  za râ *  *  *  *  *  *  *  fet   | 
e2f2 g4 z2gf e2g2 gffe d2{e}c2 d2f4ed d4  | \
w:  *  *  *  ba *  *  ğı nın  *  *  *  *  *  *  şen   | 
d2c2 c2B2 z2B4d2 d2c2 c2d_1/4e dcB^A B2c2 d4  | 
w:  *  *  *  *  bül bü lü  *  *  *  *  nâ  | 
z2f2 e2d2 edcB c2d2 ed{e}c4cB B6|
w:  zik  *  *  *  *  *  *  *  *  *  *  *  *  te *  ri    | 


